findly-builder/apps/searchassist/src/assets/images/botActionTaskIcon.svg

<svg width="14" height="10" viewBox="0 0 14 10" fill="none" xmlns="http://www.w3.org/2000/svg">
<path fill-rule="evenodd" clip-rule="evenodd" d="M1.5 1C1.22314 1 1 1.22314 1 1.5V2H13V1.5C13 1.22347 12.7762 1 12.5 1H1.5ZM13 3H1V8.5C1 8.77618 1.22347 9 1.5 9H12.5C12.7759 9 13 8.77586 13 8.5V3ZM0 1.5C0 0.670858 0.670858 0 1.5 0H12.5C13.3278 0 14 0.670532 14 1.5V8.5C14 9.32814 13.3281 10 12.5 10H1.5C0.670532 10 0 9.32782 0 8.5V1.5Z" fill="#9AA0A6"/>
</svg>

<svg width="14" height="10" fill="none" xmlns="http://www.w3.org/2000/svg"><path fill-rule="evenodd" clip-rule="evenodd" d="M1.5 1a.5.5 0 0 0-.5.5V2h12v-.5a.5.5 0 0 0-.5-.5h-11ZM13 3H1v5.5a.5.5 0 0 0 .5.5h11a.5.5 0 0 0 .5-.5V3ZM0 1.5C0 .67.67 0 1.5 0h11c.828 0 1.5.67 1.5 1.5v7a1.5 1.5 0 0 1-1.5 1.5h-11A1.5 1.5 0 0 1 0 8.5v-7Z" fill="#9AA0A6"/></svg>
